icon/cg/screen-shot.svg

<svg viewBox="0 0 24 24" fill="none" xmlns="http://www.w3.org/2000/svg" height="1em" width="1em">
  <path d="M12 8V6H8V10H10V8H12Z" fill="currentColor"/>
  <path d="M14 14H16V18H12V16H14V14Z" fill="currentColor"/>
  <path fill-rule="evenodd" clip-rule="evenodd" d="M4 3C4 2.44772 4.44772 2 5 2H19C19.5523 2 20 2.44772 20 3V21C20 21.5523 19.5523 22 19 22H5C4.44772 22 4 21.5523 4 21V3ZM6 20V4H18V20H6Z" fill="currentColor"/>
</svg>

<svg width="24" height="24" fill="none" xmlns="http://www.w3.org/2000/svg"><path d="M12 8V6H8v4h2V8h2ZM14 14h2v4h-4v-2h2v-2Z" fill="currentColor"/><path fill-rule="evenodd" clip-rule="evenodd" d="M4 3a1 1 0 0 1 1-1h14a1 1 0 0 1 1 1v18a1 1 0 0 1-1 1H5a1 1 0 0 1-1-1V3Zm2 17V4h12v16H6Z" fill="currentColor"/></svg>
